packages/core/src/svgs/tokens/mono/CSPR.svg

<svg width="24" height="24" viewBox="0 0 24 24" fill="none" xmlns="http://www.w3.org/2000/svg">
<path d="M14.9111 3.79448C14.9664 3.58195 14.9721 3.35955 14.9279 3.14444C14.8836 2.92933 14.7905 2.72727 14.6558 2.55386C14.521 2.38044 14.3482 2.24033 14.1507 2.1443C13.9532 2.04827 13.7362 1.99892 13.5166 2.00004C13.3284 1.99858 13.1418 2.0342 12.9673 2.10489C12.7928 2.17556 12.634 2.27991 12.4998 2.41198C12.3657 2.54405 12.259 2.70125 12.1856 2.87459C12.1121 3.04793 12.0736 3.23404 12.0722 3.42226C12.0722 3.84449 12.2555 4.22226 12.55 4.47783L10.9889 5.95561C10.7868 5.74396 10.5253 5.59866 10.2388 5.53894V4.55004C10.6833 4.42227 11 4.02227 11 3.55004C10.997 3.27202 10.8845 3.00639 10.687 2.81083C10.4893 2.61527 10.2225 2.50559 9.94441 2.5056C9.66733 2.50556 9.40134 2.61448 9.20387 2.80884C9.00637 3.00321 8.89323 3.26743 8.88887 3.54449C8.88887 4.10005 9.32775 4.5556 9.88331 4.58893V5.5056C9.51284 5.51708 9.16122 5.67164 8.90224 5.93681C8.64328 6.20199 8.49711 6.55718 8.49441 6.92783C8.49441 7.16116 8.54997 7.38339 8.64997 7.57783L6.2722 8.70561C6.18886 8.53338 6.06664 8.37227 5.9222 8.25005L6.90553 6.52783C7.05676 6.55534 7.21218 6.54949 7.36092 6.51069C7.50966 6.4719 7.64813 6.40107 7.76665 6.30318C7.88517 6.2053 7.98087 6.08271 8.04709 5.94399C8.11329 5.80526 8.14841 5.65375 8.14997 5.50005C8.14414 5.223 8.0296 4.95936 7.83107 4.76603C7.63256 4.5727 7.36596 4.46519 7.08886 4.4667C6.95087 4.38916 6.79699 4.34415 6.63896 4.33514C6.48093 4.32613 6.32292 4.35336 6.17701 4.41474C6.03111 4.47612 5.90116 4.57002 5.79708 4.68928C5.693 4.80854 5.61755 4.95002 5.5765 5.10289C5.53545 5.25576 5.52986 5.416 5.56018 5.57134C5.5905 5.72671 5.65592 5.87308 5.75145 5.9993C5.84697 6.12551 5.97007 6.22823 6.11135 6.29962C6.25264 6.37099 6.40836 6.40914 6.56664 6.41116L5.62774 8.05005C5.42153 7.94401 5.19296 7.88877 4.96108 7.88894C4.77285 7.88748 4.58618 7.9231 4.41171 7.99378C4.23726 8.06446 4.07842 8.16881 3.94429 8.30088C3.81016 8.43295 3.70336 8.59014 3.62998 8.76349C3.55661 8.93683 3.51808 9.12293 3.51663 9.31116C3.51738 9.53467 3.57036 9.75478 3.67136 9.95415C3.77235 10.1535 3.91855 10.3265 4.09829 10.4593C4.27804 10.5921 4.48633 10.681 4.70655 10.719C4.92677 10.7568 5.15282 10.7428 5.36664 10.6779L6.4833 12.7444C6.25553 12.9389 6.09441 13.2111 6.02775 13.5112L5.21663 13.2334C5.23846 13.0839 5.22747 12.9316 5.18442 12.787C5.14137 12.6422 5.06729 12.5086 4.96734 12.3955C4.8674 12.2823 4.74399 12.1922 4.6057 12.1317C4.46741 12.071 4.31759 12.0413 4.16663 12.0444C3.88955 12.0444 3.62356 12.1533 3.42607 12.3478C3.22859 12.5421 3.11545 12.8064 3.11108 13.0834C3.114 13.3615 3.22651 13.6271 3.42414 13.8226C3.62179 14.0182 3.8886 14.1278 4.16663 14.1278C4.36096 14.1295 4.55198 14.0774 4.71862 13.9775C4.88527 13.8774 5.02107 13.7334 5.11108 13.5611L5.99997 13.8723C6.01663 14.3111 6.23331 14.6945 6.56664 14.9445L6.03886 15.6168C5.88547 15.4857 5.69794 15.4012 5.49823 15.3731C5.29852 15.3448 5.09491 15.3741 4.91127 15.4576C4.72762 15.5409 4.57153 15.6748 4.46129 15.8438C4.35107 16.0127 4.29125 16.2094 4.28886 16.4111C4.29324 16.6892 4.40715 16.9543 4.60583 17.1487C4.80452 17.3433 5.07192 17.4516 5.34997 17.4501C5.62706 17.4501 5.89304 17.3412 6.09053 17.1468C6.28801 16.9525 6.40115 16.6882 6.40552 16.4111C6.40552 16.2223 6.35552 16.0445 6.2722 15.8944L6.87775 15.1168C7.04441 15.189 7.21664 15.2279 7.40552 15.2279L7.80552 17.7389C7.28886 17.9557 6.92775 18.4612 6.92775 19.0444C6.77226 19.2214 6.6622 19.4335 6.6071 19.6625C6.55198 19.8914 6.55348 20.1305 6.61145 20.3588C6.66943 20.587 6.78215 20.7977 6.93984 20.9727C7.09754 21.1476 7.29547 21.2815 7.51653 21.3627C7.73758 21.444 7.97512 21.4702 8.20857 21.4391C8.44203 21.4079 8.66438 21.3204 8.85641 21.184C9.04843 21.0476 9.20434 20.8665 9.31068 20.6564C9.417 20.4463 9.47053 20.2133 9.46664 19.9778L11.3945 20.7944C11.3833 20.8501 11.3833 20.9057 11.3833 20.9611C11.3877 21.2382 11.5008 21.5025 11.6983 21.6968C11.8958 21.8912 12.1618 22.0001 12.4389 22C12.717 22.0001 12.9837 21.8903 13.1813 21.6949C13.379 21.4992 13.4915 21.2336 13.4945 20.9556C13.4901 20.6786 13.3769 20.4144 13.1795 20.2199C12.9819 20.0256 12.7159 19.9167 12.4389 19.9167C12.0389 19.9167 11.6833 20.1389 11.5056 20.4612L9.66664 19.6834C9.74442 19.5334 9.79442 19.3667 9.81109 19.189L12.2834 18.5778C12.3885 18.7478 12.5278 18.8942 12.6925 19.0075C12.8572 19.1209 13.0436 19.1988 13.2399 19.2364C13.4363 19.274 13.6384 19.2705 13.8332 19.2259C14.0282 19.1815 14.2116 19.0969 14.3722 18.9778L15.3 19.7556C15.2504 19.9132 15.2385 20.0802 15.2652 20.2431C15.2919 20.4061 15.3566 20.5605 15.4538 20.694C15.5511 20.8275 15.6784 20.9363 15.8254 21.0116C15.9722 21.0869 16.1348 21.1268 16.2999 21.1279C16.5771 21.1279 16.8431 21.019 17.0405 20.8246C17.2381 20.6302 17.3512 20.366 17.3555 20.089C17.4621 19.956 17.535 19.7994 17.5684 19.6322C17.6015 19.4651 17.594 19.2924 17.5464 19.1288C17.4989 18.9652 17.4125 18.8155 17.2948 18.6922C17.1771 18.5691 17.0314 18.476 16.8702 18.4211C16.7089 18.366 16.5368 18.3507 16.3684 18.3762C16.1999 18.4017 16.04 18.4675 15.9024 18.5679C15.7647 18.6683 15.6532 18.8003 15.5774 18.9529C15.5015 19.1055 15.4636 19.2741 15.4667 19.4445L14.6333 18.7333C14.7278 18.6222 14.8056 18.489 14.861 18.3444L18.7722 18.5334C18.7944 19.0889 19.2611 19.5334 19.8278 19.5334C20.1048 19.535 20.3715 19.4274 20.5699 19.2341C20.7685 19.0408 20.883 18.7771 20.8888 18.5C20.886 18.2221 20.7735 17.9565 20.5758 17.7608C20.3782 17.5652 20.1113 17.4556 19.8334 17.4556C19.607 17.4535 19.386 17.5243 19.203 17.6573C19.02 17.7903 18.8845 17.9786 18.8167 18.1945L14.95 18.0056C14.9706 17.8386 14.9612 17.6693 14.9222 17.5056L16.2833 16.7611C16.4231 16.9243 16.6091 17.0411 16.8166 17.0964C17.0243 17.1515 17.2438 17.1424 17.446 17.0701C17.6483 16.9978 17.824 16.8659 17.9496 16.6917C18.0753 16.5176 18.1452 16.3093 18.15 16.0945C18.147 15.8165 18.0345 15.5508 17.837 15.3553C17.6393 15.1597 17.3725 15.05 17.0944 15.05C16.9257 15.0508 16.7595 15.0922 16.61 15.1703C16.4604 15.2486 16.3318 15.3617 16.235 15.4998C16.1382 15.638 16.0758 15.7975 16.0532 15.9647C16.0308 16.1321 16.0487 16.3023 16.1055 16.4612L14.7944 17.1723C14.6697 16.9425 14.4851 16.7509 14.2601 16.6178C14.035 16.4848 13.7781 16.4153 13.5166 16.4167C13.2924 16.4152 13.0709 16.4661 12.8699 16.5658C12.669 16.6653 12.4943 16.8107 12.3597 16.9901C12.2251 17.1695 12.1347 17.3779 12.0953 17.5987C12.056 17.8194 12.0689 18.0463 12.1334 18.2612L9.79998 18.839C9.75151 18.5185 9.59463 18.2244 9.35553 18.0056L9.83331 17.4278C9.91665 17.4446 9.99992 17.4556 10.0888 17.4556C10.366 17.4557 10.632 17.3467 10.8294 17.1524C11.0268 16.9581 11.14 16.6937 11.1444 16.4167C11.1414 16.1387 11.0291 15.873 10.8314 15.6776C10.6337 15.482 10.3669 15.3723 10.0888 15.3723C9.95446 15.2835 9.80128 15.2272 9.64138 15.2078C9.48149 15.1885 9.31928 15.2065 9.16757 15.2605C9.01585 15.3146 8.87879 15.4033 8.76719 15.5194C8.65561 15.6356 8.57255 15.7761 8.52459 15.9298C8.47663 16.0836 8.46507 16.2464 8.49082 16.4053C8.51659 16.5644 8.57896 16.7151 8.67302 16.8459C8.76709 16.9766 8.89025 17.0837 9.03281 17.1587C9.17536 17.2336 9.33339 17.2745 9.49442 17.2778L9.0722 17.8056C8.79092 17.6518 8.46674 17.5952 8.14997 17.6444L7.76109 15.2C8.07816 15.1305 8.3621 14.9551 8.5661 14.7028C8.7701 14.4502 8.88198 14.1358 8.8833 13.8112C8.87891 13.432 8.72443 13.0699 8.4537 12.8045C8.18298 12.539 7.81806 12.3916 7.43886 12.3944C7.19997 12.3944 6.97775 12.45 6.77775 12.55L5.69441 10.5501C5.87775 10.439 6.0333 10.2944 6.15553 10.1223L7.09997 10.3612V10.4556C7.10434 10.7327 7.21748 10.9969 7.41497 11.1912C7.61245 11.3857 7.87844 11.4945 8.15552 11.4945C8.43262 11.4945 8.69861 11.3857 8.89608 11.1912C9.09358 10.9969 9.2067 10.7327 9.21109 10.4556C9.20816 10.1776 9.09566 9.91189 8.89802 9.71641C8.70038 9.5208 8.43357 9.41113 8.15552 9.41113C7.95272 9.40945 7.7537 9.4661 7.58226 9.57447C7.41083 9.68284 7.27425 9.83826 7.18886 10.0222L6.3222 9.8056C6.41084 9.56189 6.43007 9.29845 6.37775 9.04449L8.84998 7.87782C9.04428 8.09629 9.30009 8.25091 9.58382 8.3214C9.86757 8.39189 10.166 8.37496 10.44 8.27283C10.7139 8.17071 10.9506 7.98815 11.1189 7.74911C11.2873 7.51007 11.3794 7.22572 11.3833 6.93338C11.3833 6.68337 11.3167 6.45004 11.2 6.24449L12.8444 4.68893C12.9834 4.76116 13.1333 4.81116 13.2889 4.83337V5.54448C12.8166 5.64449 12.4555 6.06115 12.4555 6.56671C12.4599 6.84376 12.5731 7.10799 12.7705 7.30236C12.9681 7.49672 13.2341 7.60564 13.5111 7.6056C13.7891 7.6071 14.0566 7.49884 14.2553 7.30431C14.4539 7.10979 14.5678 6.84474 14.5722 6.56671C14.5722 6.03338 14.1666 5.5945 13.6445 5.52783V4.84448C13.8 4.83337 13.9444 4.79449 14.0778 4.73894L15.9 6.80004C15.7389 7.02783 15.65 7.30561 15.65 7.6056C15.6514 7.79383 15.6899 7.97993 15.7634 8.15328C15.8368 8.32663 15.9434 8.48382 16.0776 8.61588C16.2118 8.74795 16.3706 8.8523 16.5451 8.92299C16.7195 8.99366 16.9062 9.0293 17.0944 9.02783C17.3219 9.02816 17.5462 8.97433 17.7488 8.87081C17.9514 8.76728 18.1264 8.61702 18.2594 8.43246C18.3924 8.24788 18.4795 8.0343 18.5136 7.80938C18.5477 7.58446 18.5279 7.35464 18.4555 7.13893L18.9334 6.86116C19.0737 7.02493 19.2607 7.14204 19.4694 7.19685C19.678 7.25167 19.8983 7.24159 20.1011 7.16797C20.3038 7.09435 20.4793 6.96068 20.6043 6.78477C20.7291 6.60886 20.7974 6.39908 20.8 6.18338C20.797 5.90536 20.6845 5.63972 20.487 5.44416C20.2893 5.24861 20.0225 5.13891 19.7445 5.13894C19.5742 5.13908 19.4068 5.18035 19.256 5.25922C19.1052 5.33809 18.9759 5.45223 18.8787 5.5919C18.7816 5.73158 18.7197 5.89266 18.6982 6.06142C18.6768 6.23019 18.6964 6.40162 18.7555 6.56116L18.3 6.82227C18.1859 6.64922 18.0358 6.50275 17.86 6.39283C17.6844 6.28291 17.4869 6.2121 17.2815 6.18522C17.0759 6.15835 16.8669 6.17603 16.6689 6.23706C16.4708 6.29809 16.2881 6.40105 16.1334 6.53894L14.3889 4.5556C14.5445 4.44449 14.6777 4.29449 14.7778 4.12226L16.2556 4.42227C16.3777 4.86672 16.7889 5.20005 17.2777 5.20005C17.5558 5.20006 17.8226 5.09038 18.0202 4.89482C18.2179 4.69926 18.3304 4.43362 18.3333 4.15561C18.3289 3.87855 18.2159 3.61432 18.0183 3.41996C17.8209 3.22559 17.5549 3.11667 17.2777 3.11671C16.7277 3.11671 16.2778 3.52782 16.2222 4.06116L14.9111 3.79448Z" fill="white"/>
</svg>

<svg xmlns="http://www.w3.org/2000/svg" width="24" height="24" fill="none" viewBox="0 0 24 24">
    <path fill="#fff" d="M14.911 3.794A1.435 1.435 0 0 0 13.517 2a1.433 1.433 0 0 0-1.445 1.422c0 .422.184.8.478 1.056l-1.561 1.478a1.45 1.45 0 0 0-.75-.417V4.55c.444-.128.761-.528.761-1a1.056 1.056 0 0 0-2.111-.006c0 .556.439 1.012.994 1.045v.917a1.433 1.433 0 0 0-1.389 1.422c0 .233.056.455.156.65L6.272 8.706a1.4 1.4 0 0 0-.35-.456l.984-1.722A1.056 1.056 0 0 0 8.15 5.5a1.056 1.056 0 0 0-1.061-1.033 1.04 1.04 0 1 0-.522 1.944l-.94 1.64a1.46 1.46 0 0 0-.666-.162A1.434 1.434 0 0 0 3.517 9.31a1.433 1.433 0 0 0 1.85 1.367l1.116 2.066a1.4 1.4 0 0 0-.455.767l-.811-.278a1.038 1.038 0 0 0-1.05-1.189 1.055 1.055 0 0 0-1.056 1.04 1.055 1.055 0 0 0 1.056 1.044 1.06 1.06 0 0 0 .944-.567l.889.311a1.4 1.4 0 0 0 .567 1.072l-.528.673a1.06 1.06 0 0 0-1.578.227 1.06 1.06 0 0 0-.172.567 1.055 1.055 0 0 0 1.061 1.04 1.056 1.056 0 0 0 1.056-1.04c0-.189-.05-.367-.134-.517l.606-.777c.166.072.339.11.528.11l.4 2.512a1.42 1.42 0 0 0-.878 1.305 1.45 1.45 0 1 0 2.539.934l1.928.816c-.012.056-.012.112-.012.167a1.056 1.056 0 0 0 2.112-.005 1.057 1.057 0 0 0-1.056-1.04c-.4 0-.756.223-.933.545l-1.84-.778q.118-.226.145-.494l2.472-.611a1.44 1.44 0 0 0 2.09.4l.927.778a1.055 1.055 0 0 0 1 1.372 1.055 1.055 0 0 0 1.055-1.039 1.063 1.063 0 0 0-.485-1.668 1.06 1.06 0 0 0-1.403 1.024l-.834-.712c.095-.11.173-.244.228-.389l3.911.19c.022.555.49 1 1.056 1a1.055 1.055 0 0 0 1.06-1.034 1.055 1.055 0 0 0-1.055-1.044 1.06 1.06 0 0 0-1.016.739l-3.867-.19c.02-.166.011-.336-.028-.5l1.361-.744a1.062 1.062 0 0 0 1.867-.666 1.056 1.056 0 0 0-1.056-1.045 1.057 1.057 0 0 0-.989 1.411l-1.31.711a1.45 1.45 0 0 0-1.278-.755 1.434 1.434 0 0 0-1.384 1.844l-2.333.58a1.42 1.42 0 0 0-.444-.833l.477-.578q.124.027.256.028a1.055 1.055 0 0 0 1.055-1.04 1.055 1.055 0 0 0-1.055-1.044 1.038 1.038 0 1 0-.595 1.906l-.422.528a1.46 1.46 0 0 0-.922-.162L7.761 15.2a1.43 1.43 0 0 0 1.122-1.389 1.433 1.433 0 0 0-1.444-1.417c-.239 0-.461.056-.661.156l-1.084-2q.277-.168.462-.428l.944.24v.094a1.055 1.055 0 0 0 2.111 0A1.055 1.055 0 0 0 8.156 9.41a1.06 1.06 0 0 0-.967.611l-.867-.216a1.4 1.4 0 0 0 .056-.762L8.85 7.878a1.45 1.45 0 0 0 2.533-.945c0-.25-.066-.483-.183-.689l1.644-1.555q.211.11.445.144v.711c-.472.1-.833.517-.833 1.023a1.056 1.056 0 0 0 1.055 1.039 1.056 1.056 0 0 0 1.061-1.04c0-.533-.405-.971-.927-1.038v-.684c.155-.01.3-.05.433-.105L15.9 6.8c-.161.228-.25.506-.25.806a1.43 1.43 0 0 0 .895 1.317c.174.07.361.106.55.105a1.434 1.434 0 0 0 1.36-1.89l.478-.277a1.06 1.06 0 0 0 1.867-.678 1.056 1.056 0 0 0-2.102-.122c-.021.17-.002.34.058.5l-.456.261a1.444 1.444 0 0 0-2.167-.283L14.39 4.556c.155-.112.289-.262.389-.434l1.478.3c.122.445.533.778 1.022.778a1.055 1.055 0 0 0 1.055-1.044 1.055 1.055 0 0 0-1.055-1.04c-.55 0-1 .412-1.056.945z"/>
</svg>
